notebook/vault/Състезания/esenno/st/Resources/2023_1.svg

<svg xmlns="http://www.w3.org/2000/svg" xmlns:xlink="http://www.w3.org/1999/xlink" width="612" height="300" viewBox="0 0 612 300">
<defs>
<g>
<g id="glyph-10-0">
<path d="M 0.40625 -4.1875 L 0.140625 -4.1875 L 0.5 -5.1875 L 0.65625 -5.609375 C 0.769531 -5.640625 0.878906 -5.660156 0.984375 -5.671875 C 1.085938 -5.691406 1.1875 -5.703125 1.28125 -5.703125 C 1.4375 -5.703125 1.648438 -5.679688 1.921875 -5.640625 C 2.253906 -5.578125 2.488281 -5.546875 2.625 -5.546875 C 2.800781 -5.546875 3.023438 -5.585938 3.296875 -5.671875 L 3.390625 -5.53125 C 2.765625 -4.75 2.332031 -4.066406 2.09375 -3.484375 C 1.863281 -2.898438 1.75 -2.320312 1.75 -1.75 C 1.75 -1.332031 1.835938 -1.015625 2.015625 -0.796875 C 2.191406 -0.585938 2.410156 -0.484375 2.671875 -0.484375 C 3.273438 -0.484375 3.800781 -0.878906 4.25 -1.671875 C 4.707031 -2.472656 4.9375 -3.300781 4.9375 -4.15625 C 4.9375 -4.414062 4.890625 -4.597656 4.796875 -4.703125 C 4.710938 -4.816406 4.59375 -4.875 4.4375 -4.875 C 4.332031 -4.875 4.21875 -4.847656 4.09375 -4.796875 L 3.953125 -5 C 4.222656 -5.226562 4.445312 -5.453125 4.625 -5.671875 C 4.75 -5.691406 4.847656 -5.703125 4.921875 -5.703125 C 5.148438 -5.703125 5.335938 -5.601562 5.484375 -5.40625 C 5.640625 -5.21875 5.71875 -4.941406 5.71875 -4.578125 C 5.71875 -3.910156 5.503906 -3.171875 5.078125 -2.359375 C 4.660156 -1.546875 4.140625 -0.890625 3.515625 -0.390625 C 3.046875 -0.0234375 2.609375 0.15625 2.203125 0.15625 C 1.804688 0.15625 1.484375 0.0195312 1.234375 -0.25 C 0.992188 -0.53125 0.875 -0.941406 0.875 -1.484375 C 0.875 -2.035156 1.023438 -2.609375 1.328125 -3.203125 C 1.503906 -3.554688 1.953125 -4.164062 2.671875 -5.03125 C 2.429688 -4.988281 2.226562 -4.96875 2.0625 -4.96875 C 1.96875 -4.96875 1.847656 -4.972656 1.703125 -4.984375 C 1.535156 -4.992188 1.414062 -5 1.34375 -5 C 1.28125 -5 1.203125 -4.992188 1.109375 -4.984375 C 1.023438 -4.972656 0.929688 -4.953125 0.828125 -4.921875 C 0.710938 -4.742188 0.570312 -4.5 0.40625 -4.1875 Z M 0.40625 -4.1875 "/>
</g>

<g id="glyph-11-0">
<path d="M 2.046875 -5.421875 C 1.59375 -5.421875 1.265625 -5.296875 0.96875 -5.015625 C 0.5 -4.5625 0.1875 -3.640625 0.1875 -2.703125 C 0.1875 -1.8125 0.453125 -0.890625 0.84375 -0.4375 C 1.140625 -0.078125 1.546875 0.109375 2.015625 0.109375 C 2.421875 0.109375 2.765625 -0.03125 3.0625 -0.3125 C 3.53125 -0.75 3.828125 -1.671875 3.828125 -2.65625 C 3.828125 -4.296875 3.09375 -5.421875 2.046875 -5.421875 Z M 2.015625 -5.21875 C 2.703125 -5.21875 3.0625 -4.3125 3.0625 -2.640625 C 3.0625 -0.953125 2.703125 -0.09375 2.015625 -0.09375 C 1.3125 -0.09375 0.96875 -0.953125 0.96875 -2.625 C 0.96875 -4.34375 1.328125 -5.21875 2.015625 -5.21875 Z M 2.015625 -5.21875 "/>
</g>
<g id="glyph-12-0">
<path d="M 7.859375 -5.609375 L 8.3125 -8 L 8.0625 -8 C 7.96875 -7.8125 7.84375 -7.734375 7.59375 -7.734375 C 7.484375 -7.734375 7.359375 -7.765625 7.109375 -7.8125 C 6.578125 -7.953125 6.09375 -8.015625 5.6875 -8.015625 C 3.109375 -8.015625 0.796875 -5.609375 0.796875 -2.921875 C 0.796875 -1.078125 2.09375 0.21875 3.9375 0.21875 C 5.1875 0.21875 6.15625 -0.296875 7.234375 -1.578125 L 7.03125 -1.75 C 5.953125 -0.6875 5.25 -0.328125 4.265625 -0.328125 C 2.921875 -0.328125 2.140625 -1.234375 2.140625 -2.796875 C 2.140625 -4.234375 2.71875 -5.6875 3.671875 -6.65625 C 4.25 -7.25 5 -7.59375 5.796875 -7.59375 C 6.90625 -7.59375 7.53125 -6.9375 7.640625 -5.640625 Z M 7.859375 -5.609375 "/>
</g>
<g id="glyph-12-1">
<path d="M 2.75 -1.484375 C 1.96875 -0.484375 1.875 -0.390625 1.609375 -0.390625 C 1.484375 -0.390625 1.421875 -0.453125 1.421875 -0.609375 C 1.421875 -0.703125 1.453125 -0.859375 1.515625 -1.078125 C 1.53125 -1.125 1.546875 -1.15625 1.546875 -1.171875 L 1.546875 -1.1875 L 3.359375 -8.171875 L 3.3125 -8.234375 C 2.578125 -8.0625 2.125 -7.984375 1.421875 -7.90625 L 1.421875 -7.703125 C 2 -7.703125 2.25 -7.640625 2.25 -7.4375 C 2.25 -7.390625 2.234375 -7.3125 2.203125 -7.21875 L 0.546875 -0.859375 C 0.5 -0.734375 0.5 -0.625 0.5 -0.546875 C 0.5 -0.09375 0.703125 0.125 1.078125 0.125 C 1.71875 0.125 2.125 -0.203125 2.90625 -1.375 Z M 2.75 -1.484375 "/>
</g>
<g id="glyph-12-2">
<path d="M 4.84375 -1.34375 C 4.75 -1.234375 4.6875 -1.15625 4.578125 -1.015625 C 4.3125 -0.65625 4.15625 -0.53125 4.015625 -0.53125 C 3.84375 -0.53125 3.734375 -0.6875 3.65625 -1.03125 C 3.625 -1.15625 3.625 -1.1875 3.609375 -1.21875 C 3.3125 -2.453125 3.171875 -3 3.171875 -3.1875 C 3.71875 -4.125 4.140625 -4.640625 4.359375 -4.640625 C 4.421875 -4.640625 4.53125 -4.609375 4.640625 -4.546875 C 4.78125 -4.453125 4.875 -4.4375 4.984375 -4.4375 C 5.21875 -4.4375 5.390625 -4.609375 5.390625 -4.859375 C 5.390625 -5.125 5.1875 -5.3125 4.890625 -5.3125 C 4.359375 -5.3125 3.921875 -4.875 3.078125 -3.59375 L 2.9375 -4.25 C 2.78125 -5.078125 2.640625 -5.3125 2.3125 -5.3125 C 2.03125 -5.3125 1.65625 -5.21875 0.90625 -4.96875 C 0.828125 -4.9375 0.828125 -4.9375 0.765625 -4.921875 L 0.8125 -4.734375 C 1.296875 -4.859375 1.375 -4.859375 1.5 -4.859375 C 1.796875 -4.859375 1.875 -4.765625 2.03125 -4.03125 L 2.390625 -2.546875 L 1.40625 -1.140625 C 1.140625 -0.78125 0.921875 -0.5625 0.78125 -0.5625 C 0.71875 -0.5625 0.59375 -0.609375 0.46875 -0.671875 C 0.3125 -0.765625 0.1875 -0.796875 0.078125 -0.796875 C -0.15625 -0.796875 -0.328125 -0.609375 -0.328125 -0.375 C -0.328125 -0.0625 -0.09375 0.125 0.28125 0.125 C 0.65625 0.125 0.796875 0.03125 1.40625 -0.703125 C 1.71875 -1.09375 1.984375 -1.453125 2.484375 -2.125 L 2.84375 -0.671875 C 3 -0.046875 3.15625 0.125 3.546875 0.125 C 4 0.125 4.3125 -0.15625 5.015625 -1.234375 Z M 4.84375 -1.34375 "/>
</g></g>





<image id="source-6" x="0" y="0" width="8" height="8" xlink:href="data:image/png;base64,iVBORw0KGgoAAAANSUhEUgAAAAgAAAAICAIAAABLbSncAAAABmJLR0QA/wD/AP+gvaeTAAAAk0lEQVQImXXIsQ2FMAxF0ffBSHZBESjDAtmBglEYLaNkgoiOCWhpQLKLKKJI/W9zpQP86de273sIQURU9TzPGCM1XdfVe8/MZjbPMwACEELw3jvniEhEmnTbtokIMxPROI5ExMwi0qWUVNXMSinP85RSzExVewDLsjjnhmGotb7ve11XzrkHcBzHNE211vu+m8YYPz0lQvtnbzazAAAAAElFTkSuQmCC"/><g clip-path="url(#clip-2)" id="source-8">
<use xlink:href="#source-6" transform="matrix(0.375, 0, 0, -0.5, 0, 4)"/>
</g>

<pattern id="pattern-0" patternUnits="userSpaceOnUse" x="0" y="0" width="3" height="4" viewBox="0 0 3 4" patternTransform="matrix(0.939826, 0, 0, -0.796144, 440.255157, 277.409206)">
<use xlink:href="#source-8"/>
</pattern></defs>
<path fill-rule="evenodd" fill="rgb(34.899902%, 34.899902%, 34.899902%)" fill-opacity="1" stroke-width="1.8" stroke-linecap="butt" stroke-linejoin="round" stroke="rgb(34.899902%, 34.899902%, 34.899902%)" stroke-opacity="1" stroke-miterlimit="10" d="M 72.902454 1.502726 L 78.902381 1.502726 L 78.902381 121.50153 L 72.902454 121.50153 Z M 72.902454 1.502726 " transform="matrix(0.667326, 0, 0, -0.666185, 439.03, 277.38)"/>
<path fill-rule="evenodd" fill="rgb(100%, 100%, 100%)" fill-opacity="1" stroke-width="1.8" stroke-linecap="butt" stroke-linejoin="round" stroke="rgb(34.899902%, 34.899902%, 34.899902%)" stroke-opacity="1" stroke-miterlimit="10" d="M 72.902454 61.50506 C 72.902454 59.845658 74.242926 58.502891 75.899491 58.502891 C 77.556056 58.502891 78.902381 59.845658 78.902381 61.50506 C 78.902381 63.158598 77.556056 64.501365 75.899491 64.501365 C 74.242926 64.501365 72.902454 63.158598 72.902454 61.50506 Z M 72.902454 61.50506 " transform="matrix(0.667326, 0, 0, -0.666185, 439.03, 277.38)"/>
<g clip-path="url(#clip-0)">
<g clip-path="url(#clip-1)">
<path fill-rule="evenodd" fill="url(#pattern-0)" d="M 453.644531 214.421875 L 457.648438 214.421875 L 457.648438 210.425781 L 453.644531 210.425781 Z M 453.644531 214.421875 "/>
</g>
</g>
<path fill="none" stroke-width="0.6006" stroke-linecap="butt" stroke-linejoin="round" stroke="rgb(49.798584%, 49.798584%, 49.798584%)" stroke-opacity="1" stroke-miterlimit="10" d="M 21.900145 97.501769 C 21.900145 99.161171 23.240616 100.498075 24.897182 100.498075 C 26.5596 100.498075 27.900072 99.161171 27.900072 97.501769 C 27.900072 95.848231 26.5596 94.505464 24.897182 94.505464 C 23.240616 94.505464 21.900145 95.848231 21.900145 97.501769 Z M 21.900145 97.501769 " transform="matrix(0.667326, 0, 0, -0.666185, 439.03, 277.38)"/>
<path fill-rule="nonzero" fill="rgb(0%, 0%, 0%)" fill-opacity="1" d="M 457.648438 212.226562 L 475.585938 212.226562 L 475.585938 213.425781 L 457.648438 213.425781 Z M 475.585938 212.824219 L 474.25 211.492188 L 478.253906 212.824219 L 474.25 214.15625 Z M 475.585938 212.824219 "/>
<g fill="rgb(0%, 0%, 0%)" fill-opacity="1">
<use xlink:href="#glyph-10-0" x="461.952641" y="207.497191"/>
</g>
<g fill="rgb(0%, 0%, 0%)" fill-opacity="1">
<use xlink:href="#glyph-11-0" x="467.975256" y="210.308492"/>
</g>

<g clip-path="url(#clip-3)">
<path fill="none" stroke-width="0.6006" stroke-linecap="butt" stroke-linejoin="round" stroke="rgb(0%, 0%, 0%)" stroke-opacity="1" stroke-dasharray="2.4024 1.8018 0.6006 1.8018" stroke-miterlimit="10" d="M 0.300406 60.901108 L 144.298663 60.901108 " transform="matrix(0.667326, 0, 0, -0.666185, 439.03, 277.38)"/>
</g><g fill="rgb(0%, 0%, 0%)" fill-opacity="1">
<use xlink:href="#glyph-12-0" x="497.337591" y="246.850073"/>
</g>
<path fill-rule="nonzero" fill="rgb(0%, 0%, 0%)" fill-opacity="1" d="M 495.085938 196.957031 L 495.085938 235.886719 L 494.683594 235.886719 L 494.683594 196.957031 Z M 493.03125 200.882812 L 494.886719 196.4375 L 496.742188 200.882812 C 496.78125 200.980469 496.734375 201.101562 496.632812 201.140625 C 496.53125 201.183594 496.414062 201.136719 496.371094 201.035156 L 494.699219 197.03125 L 495.070312 197.03125 L 493.398438 201.035156 C 493.359375 201.136719 493.238281 201.183594 493.136719 201.140625 C 493.035156 201.101562 492.988281 200.980469 493.03125 200.882812 Z M 496.742188 231.964844 L 494.886719 236.40625 L 493.03125 231.964844 C 492.988281 231.863281 493.035156 231.746094 493.136719 231.703125 C 493.238281 231.660156 493.359375 231.707031 493.398438 231.808594 L 495.070312 235.8125 L 494.699219 235.8125 L 496.371094 231.808594 C 496.414062 231.707031 496.53125 231.660156 496.632812 231.703125 C 496.734375 231.746094 496.78125 231.863281 496.742188 231.964844 Z M 496.742188 231.964844 "/>
<g fill="rgb(0%, 0%, 0%)" fill-opacity="1">
<use xlink:href="#glyph-12-1" x="501.358228" y="220.752274"/>
</g>
<path fill-rule="nonzero" fill="rgb(0%, 0%, 0%)" fill-opacity="1" d="M 461.453125 213.34375 L 461.453125 236.285156 L 461.050781 236.285156 L 461.050781 213.34375 Z M 459.398438 217.269531 L 461.25 212.824219 L 463.105469 217.269531 C 463.148438 217.371094 463.101562 217.488281 463 217.53125 C 462.898438 217.574219 462.78125 217.523438 462.738281 217.421875 L 461.066406 213.421875 L 461.4375 213.421875 L 459.765625 217.421875 C 459.722656 217.523438 459.605469 217.574219 459.503906 217.53125 C 459.402344 217.488281 459.355469 217.371094 459.398438 217.269531 Z M 463.105469 232.363281 L 461.25 236.808594 L 459.398438 232.363281 C 459.355469 232.261719 459.402344 232.144531 459.503906 232.101562 C 459.605469 232.058594 459.722656 232.105469 459.765625 232.210938 L 461.4375 236.210938 L 461.066406 236.210938 L 462.738281 232.210938 C 462.78125 232.105469 462.898438 232.058594 463 232.101562 C 463.101562 232.144531 463.148438 232.261719 463.105469 232.363281 Z M 463.105469 232.363281 "/>
<g fill="rgb(0%, 0%, 0%)" fill-opacity="1">
<use xlink:href="#glyph-12-2" x="449.890727" y="227.980382"/>
<use xlink:href="#glyph-12-1" x="455.112752" y="227.980382"/>
</g>
</svg>

<svg xmlns="http://www.w3.org/2000/svg" xmlns:xlink="http://www.w3.org/1999/xlink" width="150" height="100" viewBox="0 0 150 100">
  <defs>
    <path id="d" d="M.4-4.19H.15l.36-1 .16-.42.32-.06.3-.03q.24 0 .64.06.5.1.7.1.27 0 .68-.13l.1.14a9 9 0 0 0-1.3 2.05 5 5 0 0 0-.35 1.73q0 .63.27.95.26.32.65.32.9 0 1.58-1.2t.69-2.48q0-.38-.14-.54a.4.4 0 0 0-.36-.17q-.15 0-.35.07L3.95-5q.41-.34.67-.67l.3-.03q.35 0 .56.3.24.27.24.82 0 1-.64 2.22A6 6 0 0 1 3.52-.39q-.7.55-1.32.55-.6 0-.97-.41Q.88-.68.88-1.48q0-.84.45-1.72.26-.52 1.34-1.83a4 4 0 0 1-.97.05L1.34-5q-.1 0-.23.02-.13 0-.28.06-.18.27-.42.73m0 0"/>
    <path id="e" d="M2.05-5.42c-.46 0-.78.12-1.08.4C.5-4.56.19-3.64.19-2.7c0 .89.26 1.8.65 2.26q.46.55 1.18.55.6 0 1.04-.42c.47-.44.77-1.36.77-2.35 0-1.64-.74-2.76-1.78-2.76m-.03.2c.68 0 1.04.9 1.04 2.58Q3.05-.1 2.02-.1.97-.1.97-2.62q0-2.59 1.05-2.6m0 0"/>
    <path id="f" d="M7.86-5.6 8.3-8h-.25c-.1.19-.22.27-.47.27-.1 0-.23-.04-.48-.08a6 6 0 0 0-1.42-.2c-2.58 0-4.9 2.4-4.9 5.09C.8-1.08 2.1.22 3.95.22c1.25 0 2.22-.52 3.3-1.8l-.2-.17C5.94-.69 5.24-.33 4.26-.33c-1.35 0-2.13-.9-2.13-2.47 0-1.43.58-2.89 1.53-3.86.58-.59 1.33-.93 2.13-.93q1.66 0 1.84 1.95Zm0 0"/>
    <path id="g" d="M2.75-1.48C1.97-.48 1.88-.4 1.61-.4q-.2.01-.19-.22 0-.15.1-.47l.03-.1 1.8-7-.04-.05c-.73.17-1.18.25-1.89.32v.2c.58 0 .83.07.83.27q0 .08-.05.22L.55-.86q-.06.2-.05.31 0 .69.58.68c.64 0 1.05-.33 1.83-1.5Zm0 0"/>
    <path id="h" d="m4.84-1.34-.26.32c-.27.36-.42.49-.56.49q-.26 0-.36-.5l-.05-.19C3.3-2.45 3.17-3 3.17-3.19c.55-.93.97-1.45 1.19-1.45q.1 0 .28.1.2.12.34.1c.24 0 .41-.17.41-.42 0-.26-.2-.45-.5-.45-.53 0-.97.43-1.81 1.72l-.14-.66c-.16-.83-.3-1.06-.63-1.06-.28 0-.65.1-1.4.34l-.14.05.04.19c.49-.13.56-.13.69-.13.3 0 .38.1.53.83l.36 1.48-.98 1.4Q1-.57.78-.55a1 1 0 0 1-.31-.11 1 1 0 0 0-.4-.13.4.4 0 0 0-.4.43c0 .3.24.5.61.5C.66.13.8.02 1.41-.7l1.07-1.42.36 1.45c.16.62.32.8.7.8.46 0 .77-.29 1.48-1.36Zm0 0"/>
    <pattern id="c" width="3" height="4" x="0" y="0" patternTransform="matrix(.93983 0 0 -.79614 440.26 77.4)" patternUnits="userSpaceOnUse" viewBox="0 0 3 4">
      <use xlink:href="#a" transform="matrix(.375 0 0 -.5 0 4)"/>
    </pattern>
    <image xlink:href="data:image/png;base64,iVBORw0KGgoAAAANSUhEUgAAAAgAAAAICAIAAABLbSncAAAABmJLR0QA/wD/AP+gvaeTAAAAk0lEQVQImXXIsQ2FMAxF0ffBSHZBESjDAtmBglEYLaNkgoiOCWhpQLKLKKJI/W9zpQP86de273sIQURU9TzPGCM1XdfVe8/MZjbPMwACEELw3jvniEhEmnTbtokIMxPROI5ExMwi0qWUVNXMSinP85RSzExVewDLsjjnhmGotb7ve11XzrkHcBzHNE211vu+m8YYPz0lQvtnbzazAAAAAElFTkSuQmCC" id="a" width="8" height="8" x="0" y="0"/>
  </defs>
  <path fill="#595959" fill-rule="evenodd" stroke="#595959" stroke-linejoin="round" stroke-miterlimit="10" stroke-width="1.8" d="M72.9 1.5h6v120h-6Zm0 0" transform="matrix(.66733 0 0 -.66619 39.03 87.38)"/>
  <path fill="#fff" fill-rule="evenodd" stroke="#595959" stroke-linejoin="round" stroke-miterlimit="10" stroke-width="1.8" d="M72.9 61.5a3 3 0 1 1 6 0 3 3 0 0 1-6 0Zm0 0" transform="matrix(.66733 0 0 -.66619 39.03 87.38)"/>
  <path fill="url(#c)" fill-rule="evenodd" d="M53.64 24.42h4v-4h-4Zm0 0"/>
  <path fill="none" stroke="#7f7f7f" stroke-linejoin="round" stroke-miterlimit="10" stroke-width=".6" d="M21.9 97.5a3 3 0 1 0 6 0 3 3 0 0 0-6 0Zm0 0" transform="matrix(.66733 0 0 -.66619 39.03 87.38)"/>
  <path d="M57.65 22.23h17.94v1.2h-17.94Zm17.94.6-1.34-1.34 4 1.33-4 1.34Zm0 0"/>
  <use xlink:href="#d" x="61.95" y="17.5"/>
  <use xlink:href="#e" x="67.98" y="20.31"/>
  <path fill="none" stroke="#000" stroke-dasharray=".4024 1.8018 0.6006 1.8018" stroke-linejoin="round" stroke-miterlimit="10" stroke-width=".6" d="M.3 60.9h144" transform="matrix(.66733 0 0 -.66619 39.03 87.38)"/>
  <use xlink:href="#f" x="97.34" y="56.85"/>
  <path d="M95.09 6.96v38.93h-.4v-38.93Zm-2.06 3.92 1.86-4.44 1.85 4.44a.2.2 0 0 1-.1.26.2.2 0 0 1-.27-.1l-1.67-4h.37l-1.67 4a.2.2 0 0 1-.26.1.2.2 0 0 1-.1-.26m3.71 31.08-1.85 4.45-1.86-4.45a.2.2 0 0 1 .1-.26.2.2 0 0 1 .27.1l1.67 4.01h-.37l1.67-4a.2.2 0 0 1 .26-.1c.1.04.15.15.11.25m0 0"/>
  <use xlink:href="#g" x="101.36" y="30.75"/>
  <path d="M61.45 23.34v22.95h-.4v-22.95Zm-2.05 3.93 1.85-4.45 1.86 4.45a.2.2 0 0 1-.11.26.2.2 0 0 1-.26-.1l-1.67-4h.37l-1.67 4a.2.2 0 0 1-.27.1.2.2 0 0 1-.1-.26m3.7 15.1-1.85 4.44-1.85-4.45a.2.2 0 0 1 .1-.26.2.2 0 0 1 .27.11l1.67 4h-.37l1.67-4a.2.2 0 0 1 .26-.1c.1.03.15.15.1.25m0 0"/>
  <use xlink:href="#h" x="49.89" y="37.98"/>
  <use xlink:href="#g" x="55.11" y="37.98"/>
</svg>
